img/yt-white.svg

<svg width="20" height="19" viewBox="0 0 20 19" fill="none" xmlns="http://www.w3.org/2000/svg">
<path d="M10.8149 18.8402H9.78916C9.72389 18.8284 9.65914 18.8141 9.59386 18.8049C9.18928 18.7491 8.77952 18.7194 8.38168 18.635C6.10235 18.1516 4.23745 16.9979 2.83411 15.1597C1.17642 12.9895 0.600373 10.5389 1.09302 7.86993C1.5235 5.53703 2.72481 3.63848 4.63633 2.20702C6.76647 0.611849 9.18048 0.034252 11.8152 0.43944C13.7521 0.73668 15.4279 1.58491 16.8312 2.93656C18.3439 4.39428 19.2579 6.15777 19.5732 8.22703C19.6151 8.50636 19.6462 8.78723 19.682 9.06707V10.0806C19.641 10.4024 19.6115 10.7257 19.5576 11.0449C19.2012 13.1486 18.2351 14.9331 16.6494 16.3809C15.273 17.6538 13.5316 18.475 11.6639 18.7317C11.3816 18.7737 11.0972 18.8049 10.8149 18.8402ZM10.3201 6.08956C9.2701 6.08956 8.21954 6.07165 7.17001 6.09467C6.69343 6.10009 6.23782 6.28905 5.90023 6.62131C5.56264 6.95357 5.36973 7.40287 5.36261 7.87351C5.33982 9.00688 5.33982 10.1406 5.36261 11.2746C5.36959 11.7422 5.55981 12.1888 5.89328 12.5207C6.22675 12.8526 6.67752 13.044 7.15084 13.0545C8.05377 13.0785 8.95773 13.0647 9.86117 13.0647C11.0526 13.0647 12.2441 13.0796 13.4325 13.055C13.9125 13.0499 14.3713 12.8586 14.7097 12.5223C15.0482 12.1861 15.2391 11.7319 15.2414 11.2577C15.2614 10.1363 15.2614 9.01472 15.2414 7.89295C15.239 7.41905 15.0482 6.96503 14.7102 6.62869C14.3721 6.29234 13.9138 6.10057 13.434 6.09467C12.3969 6.07165 11.3588 6.08956 10.3201 6.08956Z" fill="white"/>
<path d="M11.5922 9.57453L9.02539 11.05V8.1001L11.5922 9.57453Z" fill="white"/>
</svg>

<svg width="20" height="19" fill="none" xmlns="http://www.w3.org/2000/svg"><path d="M10.815 18.84H9.789c-.065-.012-.13-.026-.195-.035-.405-.056-.814-.086-1.212-.17-2.28-.483-4.145-1.637-5.548-3.475C1.176 12.99.6 10.539 1.093 7.87c.43-2.333 1.632-4.232 3.543-5.663C6.766.612 9.18.034 11.816.439c1.936.298 3.612 1.146 5.015 2.498 1.513 1.457 2.427 3.22 2.742 5.29.042.28.073.56.109.84v1.014c-.041.321-.07.645-.124.964-.357 2.104-1.323 3.888-2.909 5.336a9.184 9.184 0 01-4.985 2.35c-.282.043-.567.074-.85.11zM10.32 6.09c-1.05 0-2.1-.018-3.15.005a1.84 1.84 0 00-1.27.526c-.337.333-.53.782-.537 1.253a84.603 84.603 0 000 3.4c.007.468.197.915.53 1.247a1.84 1.84 0 001.258.534c.903.024 1.807.01 2.71.01 1.192 0 2.383.015 3.571-.01a1.84 1.84 0 001.278-.533c.338-.336.53-.79.531-1.264.02-1.122.02-2.243 0-3.365a1.796 1.796 0 00-.53-1.264 1.842 1.842 0 00-1.277-.534c-1.037-.023-2.075-.005-3.114-.005z" fill="#fff"/><path d="M11.592 9.575L9.025 11.05V8.1l2.567 1.475z" fill="#fff"/></svg>
